!!!COM: Beethoven
!!!OTL: 32 Variationen fur das pianoforte
!!!Variation: Variation 12 a
**function	**harm	**kern	**kern
*	*	*clefF4	*clefF4
*	*	*k[]	*k[]
*M3/4	*M3/4	*M3/4	*M3/4
*C:	*C:	*C:	*C:
=97	=97	=97	=97
*	*	*^	*^
2.T	2.I	4r	2.CC	4r	4r
.	.	(4GG	.	(4..c	2E 2G
.	.	4C)	.	.	.
.	.	.	.	16e)	.
=98	=98	=98	=98	=98	=98
2.T	2.Vb	4r	2.BBB	4d	2.D 2.G
.	.	(4GG	.	(4..G	.
.	.	4BB)	.	.	.
.	.	.	.	16d)	.
=99	=99	=99	=99	=99	=99
2.T	2.V7b/ii	4r	2.CC#	4e	4G 4B-
.	.	(4AA	.	(4..e	2G 2A
.	.	4C#)	.	.	.
.	.	.	.	16g)	.
=100	=100	=100	=100	=100	=100
2.T	2.ii	4r	2.DD	4e	2.F 2.A
.	.	(4AA	.	4..f	.
.	.	4D)	.	.	.
.	.	.	.	16f	.
=101	=101	=101	=101	=101	=101
2.T	2.Cto7	4r	2.DD#	4f#	2.A 2.c
.	.	(4C	.	4..f#	.
.	.	4D#)	.	.	.
.	.	.	.	16f#	.
*	*	*v	*v	*	*
=102	=102	=102	=102	=102
4T	4Ib	(4EE	4g	4G 4c
*	*	*	*clefG2	*
4P	4ii7b	4FFF 4FF	[2a	[2A [2c [2d
4P	4V7b/V	[4FFF#) [4FF#	.	.
=103	=103	=103	=103	=103
4P	4V7b/V	4FFF#] 4FF#]	8.aL]	4A] 4c] 4d]
.	.	.	16aJk	.
2D	2V7	[2GGG [2GG	(4f	2B 2d
.	.	.	4g	.
*	*	*	*v	*v
=104	=104	=104	=104
2T	2I	4GGG] 4GG]	8c)
.	.	.	8r
.	.	(4EE	4r
16T	16I	16CC)	16r
!	!	!bass note rings	!
*-	*-	*-	*-
